images/icon-why-us-2.svg

<svg width="47" height="48" viewBox="0 0 47 48" fill="none" xmlns="http://www.w3.org/2000/svg">
<path fill-rule="evenodd" clip-rule="evenodd" d="M13.9182 0.756873C12.1051 0.809842 11.914 0.831873 11.5016 1.03494C10.4961 1.53012 10.0281 2.81244 10.4855 3.81931C10.5804 4.02828 10.8814 4.39465 11.1544 4.63344L11.6507 5.06769L11.5901 6.19625C11.5524 6.89665 11.4013 7.95725 11.1916 8.9915C10.8011 10.919 10.8007 11.4863 11.1897 12.15C11.6652 12.9613 12.5185 13.2247 13.5432 12.8763L14.1057 12.6851L14.4338 13.003C14.6143 13.1778 14.9188 13.3862 15.1105 13.4661C15.7958 13.7516 16.9415 13.5827 17.6691 13.089L18.0257 12.8471L18.6906 13.1589C19.2807 13.4355 19.4456 13.4707 20.1526 13.4707C20.8812 13.4707 20.9962 13.4442 21.495 13.1616L22.0405 12.8524L22.2218 13.083C22.3216 13.2099 22.6223 13.4228 22.8901 13.5562C23.7579 13.9887 24.7908 13.8505 25.563 13.1987C25.8065 12.993 25.8991 12.9633 26.0479 13.043C26.1491 13.0972 26.4451 13.1872 26.7057 13.2431C27.5508 13.4243 28.4686 13.0002 28.8508 12.2519C29.0542 11.8535 29.0716 11.1625 28.9146 9.71131C28.7421 8.11578 28.7702 6.5945 28.9898 5.6465C29.0862 5.23025 29.1518 5.12262 29.3414 5.06984C29.4695 5.03422 30.3549 5.00169 31.3088 4.99765C36.3215 4.97656 45.5294 4.76684 45.7463 4.66897C45.9244 4.58853 45.9876 4.48025 46.0095 4.21784C46.0637 3.56609 46.1167 3.57284 41.7586 3.67484C39.6464 3.72434 32.1231 3.80928 25.0403 3.86365C10.6824 3.974 11.8504 4.02069 11.5593 3.32403C11.4404 3.03931 11.438 2.93956 11.5438 2.66169C11.6123 2.48178 11.7874 2.24562 11.9329 2.13697C12.1947 1.94159 12.2551 1.93944 17.4173 1.93944C20.7653 1.93944 23.6286 1.98987 25.4026 2.08006C29.2986 2.27815 45.4941 2.23465 45.8166 2.02522C46.0684 1.86172 46.1082 1.32622 45.8824 1.13881C45.7662 1.04234 44.0349 1.02219 37.1871 1.03765C30.9385 1.05172 27.7158 1.01947 25.2151 0.917936C20.9603 0.745061 16.4975 0.681498 13.9182 0.756873ZM12.9242 5.14203C12.7999 5.17531 12.7642 5.39534 12.7171 6.42022C12.6781 7.26387 12.5674 8.09112 12.3693 9.01756C12.2095 9.76522 12.0712 10.6237 12.0622 10.9252C12.0473 11.4219 12.0709 11.4952 12.3134 11.7037C12.6139 11.9622 12.8954 11.9453 13.516 11.6311C13.7073 11.5343 14.0212 11.4551 14.2135 11.4551C14.5126 11.4551 14.6254 11.5226 14.9949 11.9223C15.2607 12.2098 15.5356 12.4114 15.7099 12.4462C16.1128 12.5268 16.7268 12.3368 17.2692 11.9637C17.5319 11.7831 17.8525 11.6426 18.0022 11.6426C18.1487 11.6426 18.5699 11.8001 18.9384 11.9925C19.4853 12.2783 19.7073 12.3426 20.1466 12.3426C20.6147 12.3426 20.7508 12.297 21.1929 11.9925C21.9348 11.4815 22.2677 11.5045 22.9087 12.1107C23.6718 12.8323 24.1728 12.8533 24.8886 12.1934C25.412 11.711 25.8568 11.6294 26.4138 11.9137C26.918 12.1708 27.4056 12.1707 27.6631 11.9133C27.8471 11.7293 27.8569 11.6487 27.8033 10.7649C27.6551 8.32297 27.6359 6.94831 27.7391 6.17225C27.7988 5.72384 27.8719 5.29353 27.9016 5.21609C27.9486 5.09375 27.7545 5.07865 26.4213 5.10115L24.8869 5.12694L24.8585 6.06444C24.8429 6.58006 24.8842 7.36053 24.9503 7.79881C25.0165 8.23709 25.0602 8.68006 25.0473 8.78319C25.0008 9.15641 24.4859 9.33209 24.1543 9.08787C23.8968 8.89831 23.7027 7.70937 23.7026 6.32225V5.08006H22.3182H20.9339L20.8435 6.40437C20.7607 7.61909 20.7352 7.74322 20.5363 7.90437C20.2499 8.13631 20.0962 8.126 19.8271 7.85684C19.6151 7.64487 19.6059 7.58656 19.6469 6.70841C19.6706 6.19953 19.7057 5.62503 19.7249 5.43162L19.7597 5.08006H18.4093H17.0588L17.0571 5.80662C17.0554 6.50778 16.8485 8.25472 16.7309 8.56147C16.6993 8.64369 16.5704 8.75787 16.4443 8.81534C16.1654 8.94247 15.7784 8.79762 15.695 8.53503C15.6648 8.43997 15.7092 7.82703 15.7935 7.17303C15.882 6.48659 15.9205 5.79284 15.8846 5.53194L15.8224 5.08006L14.4484 5.09094C13.6927 5.09694 13.0068 5.1199 12.9242 5.14203ZM4.99337 8.55847C3.8469 8.99919 2.90255 10.3422 2.90255 11.5318C2.90255 12.3328 3.12962 12.7978 3.84315 13.4585C5.72565 15.2014 8.18152 14.3166 8.63687 11.7312C8.75096 11.0836 8.62833 10.2363 8.3394 9.67616C7.75534 8.54366 6.29799 8.0569 4.99337 8.55847ZM5.27237 9.72528C4.55687 10.0818 4.02755 10.8728 4.02755 11.5854C4.02755 12.341 5.2388 13.2999 6.0773 13.208C6.61309 13.1493 6.92124 12.9072 7.2474 12.2889C7.48834 11.8321 7.51027 11.7142 7.47465 11.0706C7.44437 10.5247 7.38577 10.2885 7.22396 10.0614C6.78559 9.44572 6.07787 9.32384 5.27237 9.72528ZM12.4182 15.4983C7.53943 16.1082 5.10718 20.499 6.32265 26.502C6.80227 28.871 7.67171 31.1697 9.24165 34.2194C10.7251 37.1016 10.9398 37.7356 11.7641 41.6697C12.2794 44.1297 12.5601 45.1296 12.9825 46.0102C13.3199 46.7136 13.862 47.3485 14.3336 47.5923C15.0429 47.9592 16.1325 47.8854 16.6444 47.4358C17.5688 46.6243 17.8921 45.4144 18.4177 40.7988C19.0052 35.64 19.4923 34.0311 20.3054 34.5638C20.903 34.9555 21.2234 36.3939 21.7457 41.0332C22.1844 44.9281 22.527 46.3628 23.2085 47.1591C24.0457 48.1371 25.7342 48.0167 26.6002 46.9172C27.2993 46.0296 27.6686 44.9557 28.3144 41.9323C29.174 37.9081 29.4526 37.007 30.3852 35.2332C32.3241 31.5453 33.3254 28.9841 33.8582 26.3485C34.0373 25.4626 34.0733 24.991 34.072 23.5488C34.0699 21.4737 33.9246 20.7803 33.1686 19.239C32.1091 17.0793 30.1928 15.8064 27.5203 15.4873C25.8602 15.2891 24.1113 15.5984 22.1474 16.4375C21.3597 16.7741 21.1184 16.8333 20.3776 16.872C19.3834 16.924 18.8254 16.8148 17.8068 16.3691C16.7977 15.9274 15.6266 15.6084 14.59 15.4928C13.5836 15.3806 13.3555 15.3811 12.4182 15.4983ZM12.0901 16.7534C9.1988 17.3442 7.54524 19.3109 7.20174 22.5674C6.88524 25.5689 8.06537 29.6939 10.5369 34.2248C11.6562 36.2767 12.0654 37.5118 12.8422 41.1841C13.5987 44.7599 13.9867 45.8635 14.671 46.3854C15.0841 46.7005 15.7198 46.7491 16.0086 46.4878C16.5028 46.0407 16.8212 44.5388 17.2916 40.4383C17.4769 38.8221 17.6933 37.1588 17.7723 36.7421C18.1843 34.5705 18.8583 33.4603 19.8451 33.328C20.8846 33.1886 21.6626 33.987 22.1176 35.6605C22.3713 36.5933 22.5333 37.6738 22.8736 40.7051C23.328 44.7519 23.7309 46.3857 24.331 46.6138C24.874 46.8203 25.548 46.4893 25.9677 45.8102C26.3184 45.2427 26.6978 43.9524 27.1868 41.6639C28.1116 37.3358 28.3127 36.7268 29.7165 34.0019C31.6963 30.1587 32.6109 27.5401 32.9056 24.8714C33.2863 21.4239 32.1601 18.5928 29.9494 17.4396C28.7277 16.8023 28.0756 16.6571 26.4807 16.6669C24.8701 16.6768 24.2537 16.8068 22.7183 17.4603C21.9427 17.7904 20.822 18.0854 20.2463 18.111C19.9943 18.1222 20.4441 18.3902 20.9732 18.5441C21.6454 18.7395 21.846 19.1367 21.4651 19.5176C21.0181 19.9646 20.125 19.6471 19.0637 18.664C18.1387 17.8069 17.7345 17.5517 16.7095 17.1777C15.2229 16.635 13.4611 16.4733 12.0901 16.7534ZM1.46855 17.9596C0.398585 18.2568 -0.247258 19.5786 0.0896793 20.7817C0.411523 21.9313 1.86343 22.7181 3.11096 22.4188C3.71471 22.2739 4.39627 21.6359 4.56924 21.0536C4.94968 19.7725 4.41859 18.5532 3.27249 18.0764C2.77552 17.8697 1.97809 17.8182 1.46855 17.9596ZM1.45599 19.2682C1.33534 19.3887 1.20699 19.6626 1.1709 19.8767C1.0374 20.6667 1.64105 21.2988 2.52868 21.2988C3.06334 21.2988 3.33568 21.1115 3.47443 20.6482C3.74949 19.7303 3.18699 19.0488 2.15443 19.0488C1.77709 19.0488 1.62868 19.0954 1.45599 19.2682ZM37.4969 20.291C36.763 20.6647 36.4214 21.7827 36.7792 22.6392C36.9409 23.0262 37.4751 23.4963 37.9201 23.6432C38.4674 23.8238 39.2932 23.7243 39.6771 23.4316C40.2412 23.0013 40.5032 22.2086 40.3139 21.5052C40.0021 20.347 38.5856 19.7366 37.4969 20.291ZM37.9309 21.4028C37.6113 21.8592 37.8344 22.4341 38.3846 22.5722C38.7961 22.6755 39.0773 22.5456 39.1652 22.2117C39.3136 21.6484 39.0721 21.3162 38.4539 21.2334C38.1418 21.1915 38.0605 21.2178 37.9309 21.4028Z" fill="#0E384C"/>
<path fill-rule="evenodd" clip-rule="evenodd" d="M12.9183 15.4982C8.03952 16.1082 5.60727 20.499 6.82274 26.502C7.30236 28.8709 8.1718 31.1696 9.74174 34.2194C11.2252 37.1015 11.4399 37.7355 12.2642 41.6696C12.7795 44.1296 13.0602 45.1295 13.4826 46.0101C13.82 46.7135 14.3621 47.3484 14.8337 47.5922C15.543 47.9591 16.6326 47.8853 17.1445 47.4358C18.0689 46.6242 18.3921 45.4143 18.9178 40.7987C19.5053 35.64 19.9924 34.031 20.8055 34.5637C21.4031 34.9554 21.7235 36.3938 22.2458 41.0331C22.6845 44.928 23.0271 46.3627 23.7086 47.159C24.5458 48.137 26.2343 48.0166 27.1003 46.9171C27.7994 46.0295 28.1687 44.9556 28.8145 41.9323C29.6741 37.908 29.9526 37.0069 30.8853 35.2332C32.8242 31.5452 33.8255 28.984 34.3583 26.3484C34.5374 25.4625 34.5734 24.9909 34.5721 23.5487C34.57 21.4737 34.4247 20.7802 33.6687 19.239C32.6092 17.0792 30.6929 15.8063 28.0204 15.4873C26.3603 15.289 24.6114 15.5984 22.6475 16.4374C21.8598 16.774 21.6185 16.8332 20.8776 16.872C19.8835 16.9239 19.3255 16.8148 18.3069 16.369C17.2978 15.9273 16.1267 15.6083 15.0901 15.4927C14.0837 15.3805 13.8556 15.381 12.9183 15.4982ZM12.5901 16.7534C9.69889 17.3441 8.04533 19.3109 7.70183 22.5674C7.38533 25.5689 8.56546 29.6939 11.037 34.2247C12.1563 36.2766 12.5655 37.5118 13.3423 41.184C14.0988 44.7599 14.4868 45.8634 15.1711 46.3853C15.5841 46.7004 16.2199 46.7491 16.5087 46.4878C17.0029 46.0406 17.3213 44.5387 17.7917 40.4383C17.977 38.822 18.1934 37.1587 18.2724 36.742C18.6844 34.5705 19.3584 33.4602 20.3451 33.3279C21.3846 33.1885 22.1627 33.987 22.6177 35.6604C22.8714 36.5932 23.0334 37.6738 23.3736 40.705C23.8281 44.7518 24.231 46.3856 24.8311 46.6138C25.3741 46.8202 26.0481 46.4893 26.4678 45.8101C26.8185 45.2426 27.1979 43.9523 27.6869 41.6639C28.6117 37.3357 28.8128 36.7267 30.2166 34.0019C32.1964 30.1586 33.111 27.54 33.4056 24.8714C33.7864 21.4238 32.6602 18.5927 30.4495 17.4395C29.2278 16.8022 28.5756 16.657 26.9808 16.6668C25.3701 16.6768 24.7538 16.8067 23.2184 17.4602C22.4428 17.7903 21.3221 18.0854 20.7464 18.1109C20.4944 18.1221 20.9442 18.3901 21.4732 18.544C22.1455 18.7395 22.3461 19.1366 21.9651 19.5175C21.5181 19.9645 20.6251 19.647 19.5638 18.6639C18.6388 17.8068 18.2346 17.5516 17.2096 17.1776C15.723 16.635 13.9612 16.4732 12.5901 16.7534Z" fill="#1E84B5"/>
</svg>

<svg xmlns="http://www.w3.org/2000/svg" width="47" height="48" fill="none" viewBox="0 0 47 48"><path fill="#0e384c" fill-rule="evenodd" d="M13.918.757c-1.813.053-2.004.075-2.416.278-1.006.495-1.474 1.777-1.017 2.784.095.21.396.576.67.814l.496.435-.06 1.128c-.039.7-.19 1.761-.4 2.796-.39 1.927-.39 2.494-.001 3.158.475.811 1.329 1.075 2.353.726l.563-.19.328.317c.18.175.485.383.677.463.685.286 1.83.117 2.558-.377l.357-.242.665.312c.59.276.755.312 1.462.312.728 0 .843-.027 1.342-.31l.546-.309.18.231c.1.127.401.34.67.473.867.433 1.9.295 2.672-.357.244-.206.336-.236.485-.156.101.054.397.144.658.2.845.181 1.763-.243 2.145-.991.203-.399.22-1.09.064-2.54-.173-1.596-.145-3.117.075-4.065.096-.417.162-.524.351-.577.128-.036 1.014-.068 1.968-.072 5.012-.021 14.22-.231 14.437-.329.178-.08.242-.189.264-.451.054-.652.107-.645-4.251-.543-2.113.05-9.636.134-16.719.189-14.358.11-13.19.157-13.48-.54-.12-.285-.122-.384-.016-.662.068-.18.243-.416.389-.525.262-.195.322-.198 5.484-.198 3.348 0 6.212.05 7.986.141 3.896.198 20.091.155 20.414-.055.251-.163.291-.699.065-.886-.116-.097-1.847-.117-8.695-.101-6.248.014-9.471-.019-11.972-.12C20.96.745 16.497.68 13.918.757m-.994 4.385c-.124.033-.16.253-.207 1.278a15.6 15.6 0 0 1-.348 2.598c-.16.747-.298 1.606-.307 1.907-.015.497.009.57.251.779.3.258.582.241 1.203-.073a1.9 1.9 0 0 1 .697-.176c.3 0 .412.068.782.467.266.288.54.49.715.524.403.08 1.017-.11 1.56-.482.262-.18.582-.321.732-.321.147 0 .568.157.936.35.547.285.77.35 1.209.35.468 0 .604-.046 1.046-.35.742-.511 1.075-.489 1.716.118.763.721 1.264.742 1.98.082.523-.482.968-.564 1.525-.28.504.258.992.258 1.25 0 .183-.184.193-.264.14-1.148-.149-2.442-.168-3.817-.065-4.593.06-.448.133-.878.163-.956.047-.122-.148-.137-1.48-.115l-1.535.026-.029.937A12 12 0 0 0 24.95 7.8c.067.438.11.881.097.984-.046.373-.561.55-.893.305-.257-.19-.451-1.379-.451-2.766V5.08h-2.769l-.09 1.324c-.083 1.215-.109 1.34-.308 1.5-.286.232-.44.222-.709-.047-.212-.212-.221-.27-.18-1.149.024-.508.059-1.083.078-1.276l.035-.352h-2.701l-.002.727c-.002.7-.208 2.448-.326 2.754-.032.083-.16.197-.287.254-.279.127-.666-.017-.749-.28-.03-.095.014-.708.098-1.362.089-.686.128-1.38.092-1.641l-.063-.452-1.374.01c-.755.007-1.441.03-1.524.052m-7.93 3.416C3.846 9 2.902 10.342 2.902 11.532c0 .8.227 1.266.94 1.927 1.883 1.742 4.339.858 4.794-1.728.114-.647-.009-1.495-.298-2.055-.584-1.132-2.041-1.62-3.346-1.118m.278 1.167c-.715.357-1.244 1.148-1.244 1.86 0 .756 1.21 1.715 2.05 1.623.535-.059.843-.3 1.17-.92.24-.456.262-.574.227-1.217-.03-.546-.09-.782-.251-1.01-.438-.615-1.146-.737-1.952-.336m7.146 5.773c-4.879.61-7.31 5.001-6.095 11.004.48 2.369 1.349 4.668 2.919 7.717 1.483 2.883 1.698 3.517 2.522 7.45.515 2.46.796 3.46 1.219 4.341.337.704.879 1.339 1.35 1.582.71.367 1.8.293 2.311-.156.925-.812 1.248-2.022 1.774-6.637.587-5.159 1.074-6.768 1.887-6.235.598.392.918 1.83 1.44 6.47.44 3.894.782 5.329 1.463 6.125.838.978 2.526.858 3.392-.242.7-.887 1.069-1.961 1.714-4.985.86-4.024 1.139-4.925 2.071-6.699 1.94-3.688 2.94-6.249 3.473-8.884.18-.886.215-1.358.214-2.8-.002-2.075-.147-2.769-.903-4.31-1.06-2.16-2.976-3.433-5.649-3.752-1.66-.198-3.409.111-5.373.95-.787.337-1.029.396-1.77.435-.994.052-1.552-.057-2.57-.503a11.6 11.6 0 0 0-3.217-.876c-1.006-.112-1.235-.112-2.172.005m-.328 1.255c-2.891.591-4.545 2.558-4.888 5.814-.317 3.002.863 7.127 3.335 11.658 1.12 2.052 1.528 3.287 2.305 6.96.757 3.575 1.145 4.679 1.829 5.2.413.316 1.049.364 1.338.103.494-.447.812-1.95 1.283-6.05.185-1.616.401-3.28.48-3.696.412-2.171 1.086-3.282 2.073-3.414 1.04-.14 1.818.659 2.273 2.332.253.933.415 2.014.756 5.045.454 4.047.857 5.68 1.457 5.909.543.206 1.217-.125 1.637-.804.35-.567.73-1.858 1.219-4.146.925-4.328 1.126-4.937 2.53-7.662 1.98-3.843 2.894-6.462 3.189-9.13.38-3.448-.746-6.28-2.957-7.432-1.221-.638-1.873-.783-3.468-.773-1.61.01-2.227.14-3.763.793-.775.33-1.896.625-2.472.651-.252.011.198.28.727.433.672.195.873.593.492.974-.447.447-1.34.13-2.401-.854-.925-.857-1.33-1.112-2.355-1.486-1.486-.543-3.248-.705-4.619-.425M1.47 17.96C.4 18.257-.246 19.579.09 20.782c.323 1.15 1.774 1.936 3.022 1.637.604-.145 1.285-.783 1.458-1.365.38-1.281-.15-2.5-1.297-2.978-.496-.206-1.294-.258-1.803-.116m-.013 1.308c-.12.12-.249.395-.285.609-.134.79.47 1.422 1.358 1.422.534 0 .807-.187.945-.65.275-.919-.287-1.6-1.32-1.6-.377 0-.525.046-.698.22m36.04 1.023c-.733.374-1.075 1.492-.717 2.348.162.387.696.857 1.141 1.004.547.18 1.373.081 1.757-.211.564-.43.826-1.223.637-1.927-.312-1.158-1.728-1.768-2.817-1.214m.435 1.112c-.32.456-.097 1.031.454 1.17.411.102.692-.027.78-.361.149-.564-.093-.896-.711-.979-.312-.041-.394-.015-.523.17" clip-rule="evenodd"/><path fill="#1e84b5" fill-rule="evenodd" d="M12.918 15.498c-4.878.61-7.31 5.001-6.095 11.004.48 2.369 1.349 4.668 2.919 7.717 1.483 2.883 1.698 3.517 2.522 7.45.516 2.46.796 3.46 1.219 4.341.337.704.88 1.338 1.35 1.582.71.367 1.8.293 2.312-.156.924-.812 1.247-2.022 1.773-6.637.587-5.159 1.074-6.768 1.887-6.235.598.391.919 1.83 1.44 6.47.44 3.894.782 5.329 1.464 6.125.837.978 2.525.858 3.391-.242.7-.888 1.069-1.961 1.714-4.985.86-4.024 1.139-4.925 2.071-6.699 1.94-3.688 2.94-6.249 3.473-8.885.18-.886.215-1.357.214-2.8-.002-2.074-.147-2.768-.903-4.309-1.06-2.16-2.976-3.433-5.649-3.752-1.66-.198-3.409.111-5.372.95-.788.337-1.03.396-1.77.435-.994.052-1.552-.057-2.571-.503a11.6 11.6 0 0 0-3.217-.876c-1.006-.113-1.234-.112-2.172.005m-.328 1.255c-2.891.591-4.545 2.558-4.888 5.814-.317 3.002.863 7.127 3.335 11.658 1.12 2.052 1.528 3.287 2.305 6.959.757 3.576 1.145 4.68 1.83 5.201.412.315 1.048.364 1.337.103.494-.447.812-1.95 1.283-6.05.185-1.616.401-3.28.48-3.696.412-2.171 1.086-3.282 2.073-3.414 1.04-.14 1.818.659 2.273 2.332.253.933.415 2.014.756 5.045.454 4.047.857 5.68 1.457 5.909.543.206 1.217-.125 1.637-.804.35-.567.73-1.858 1.219-4.146.925-4.328 1.126-4.937 2.53-7.662 1.98-3.843 2.894-6.462 3.189-9.13.38-3.448-.746-6.28-2.956-7.433-1.222-.637-1.874-.782-3.47-.772-1.61.01-2.226.14-3.762.793-.775.33-1.896.625-2.472.65-.252.012.198.28.727.434.672.195.873.593.492.973-.447.448-1.34.13-2.401-.853-.925-.857-1.33-1.112-2.354-1.486-1.487-.543-3.249-.705-4.62-.425" clip-rule="evenodd"/></svg>
